X:10
T: SCHLAF DU KLEINE SEELE
N: K0037
O: Europa, Mitteleuropa, Deutschland, Brandenburg
R: Kinder -, Wiegen - Lied
M: 6/8
L: 1/8
K: G
 | DGGGAB | B3A3
DAAAdc | c3B2z
DGGGAB | B3A3
DAAAdc | c3B2z
d2BBcd | c3A3
c2AABc | B3G3
DGGGAB | B3A3
BdBAGA | G3z3
BdBAcA | GGGG2z
BdBAcA | G3z3

